packages/foundations/assets/icons/functional/images/security/lock_closed_20.svg

<svg width="20" height="20" viewBox="0 0 20 20" fill="none" xmlns="http://www.w3.org/2000/svg">
<g clip-path="url(#clip0_187_243)">
<path fill-rule="evenodd" clip-rule="evenodd" d="M10 2.50858C12.1422 2.50858 13.995 4.25115 14 6.50858C14.0015 7.17521 14 7.50858 14 7.50858C15.1046 7.50858 16 8.40401 16 9.50858V15.4914C16 16.596 15.1046 17.4914 14 17.4914H6C4.89543 17.4914 4 16.596 4 15.4914V9.50858C4 8.40401 4.89543 7.50858 6 7.50858V6.50858C6 4.29944 7.79086 2.50858 10 2.50858ZM14 9.50858H6V15.4914H14V9.50858ZM10 10.4914C10.5128 10.4914 10.9355 10.8775 10.9933 11.3748L11 11.4914V13.4865C11 14.0388 10.5523 14.4865 10 14.4865C9.48716 14.4865 9.06449 14.1005 9.00673 13.6031L9 13.4865V11.4914C9 10.9391 9.44772 10.4914 10 10.4914ZM10 4.50858C8.94564 4.50858 8.00294 5.35742 8 6.50858C7.9983 7.17521 8 7.50858 8 7.50858H12V6.50858C12 5.40401 11.1046 4.50858 10 4.50858Z" fill="#1A1C1F"/>
</g>
<defs>
<clipPath id="clip0_187_243">
<rect width="20" height="20" fill="white"/>
</clipPath>
</defs>
</svg>

<svg xmlns="http://www.w3.org/2000/svg" width="20" height="20" fill="none"><g clip-path="url(#a)"><path fill="#1A1C1F" fill-rule="evenodd" d="M10 2.509c2.142 0 3.995 1.742 4 4q.002 1 0 1a2 2 0 0 1 2 2v5.982a2 2 0 0 1-2 2H6a2 2 0 0 1-2-2V9.51a2 2 0 0 1 2-2v-1a4 4 0 0 1 4-4m4 7H6v5.982h8zm-4 .982a1 1 0 0 1 .993.884l.007.116v1.995a1 1 0 0 1-1.993.117L9 13.486v-1.995a1 1 0 0 1 1-1m0-5.982a2.004 2.004 0 0 0-2 2q-.002 1 0 1h4v-1a2 2 0 0 0-2-2" clip-rule="evenodd"/></g><defs><clipPath id="a"><path fill="#fff" d="M0 0h20v20H0z"/></clipPath></defs></svg>
